packages/icons/src/components/Icon/assets/small-outline/sparkles.svg

<svg width="16" height="16" viewBox="0 0 16 16" fill="none" xmlns="http://www.w3.org/2000/svg">
<path fill-rule="evenodd" clip-rule="evenodd" d="M11.8462 1C12.1903 1 12.4903 1.23422 12.5738 1.5681L12.7397 2.23186C12.8663 2.73828 13.2617 3.13369 13.7681 3.2603L14.4319 3.42624C14.7658 3.50971 15 3.8097 15 4.15385C15 4.498 14.7658 4.79798 14.4319 4.88145L13.7681 5.04739C13.2617 5.174 12.8663 5.56941 12.7397 6.07584L12.5738 6.73959C12.4903 7.07347 12.1903 7.30769 11.8462 7.30769C11.502 7.30769 11.202 7.07347 11.1185 6.73959L10.9526 6.07584C10.826 5.56941 10.4306 5.174 9.92416 5.04739L9.26041 4.88145C8.92653 4.79798 8.69231 4.498 8.69231 4.15385C8.69231 3.8097 8.92653 3.50971 9.26041 3.42624L9.92416 3.2603C10.4306 3.13369 10.826 2.73828 10.9526 2.23186L11.1185 1.5681C11.202 1.23422 11.502 1 11.8462 1ZM11.8462 3.7218C11.7177 3.88053 11.5728 4.02537 11.4141 4.15385C11.5728 4.28233 11.7177 4.42716 11.8462 4.58589C11.9746 4.42716 12.1195 4.28233 12.2782 4.15385C12.1195 4.02537 11.9746 3.88053 11.8462 3.7218ZM6.07692 2.92308C6.41178 2.92308 6.70607 3.14506 6.79807 3.46704L7.31935 5.29152C7.52196 6.00065 8.07627 6.55497 8.78541 6.75758L10.6099 7.27886C10.9319 7.37085 11.1538 7.66514 11.1538 8C11.1538 8.33486 10.9319 8.62915 10.6099 8.72114L8.78541 9.24242C8.07627 9.44503 7.52196 9.99935 7.31935 10.7085L6.79807 12.533C6.70607 12.8549 6.41178 13.0769 6.07692 13.0769C5.74206 13.0769 5.44777 12.8549 5.35578 12.533L4.8345 10.7085C4.63189 9.99935 4.07758 9.44503 3.36844 9.24242L1.54396 8.72114C1.22198 8.62915 1 8.33486 1 8C1 7.66514 1.22198 7.37085 1.54396 7.27886L3.36844 6.75758C4.07758 6.55497 4.63189 6.00065 4.8345 5.29152L5.35578 3.46704C5.44777 3.14506 5.74206 2.92308 6.07692 2.92308ZM6.07692 6.23952C5.7159 7.01493 5.09185 7.63897 4.31644 8C5.09185 8.36103 5.7159 8.98507 6.07692 9.76048C6.43795 8.98507 7.06199 8.36103 7.8374 8C7.06199 7.63897 6.43795 7.01493 6.07692 6.23952ZM10.8846 9.65385C11.2074 9.65385 11.494 9.86042 11.5961 10.1667L11.8488 10.9248C11.9178 11.1316 12.08 11.2938 12.2867 11.3627L13.0449 11.6154C13.3511 11.7175 13.5577 12.0041 13.5577 12.3269C13.5577 12.6497 13.3511 12.9363 13.0449 13.0384L12.2867 13.2912C12.08 13.3601 11.9178 13.5223 11.8488 13.729L11.5961 14.4872C11.494 14.7934 11.2074 15 10.8846 15C10.5618 15 10.2752 14.7934 10.1731 14.4872L9.92038 13.729C9.85147 13.5223 9.68925 13.3601 9.48253 13.2912L8.72437 13.0384C8.41811 12.9363 8.21154 12.6497 8.21154 12.3269C8.21154 12.0041 8.41811 11.7175 8.72437 11.6154L9.48253 11.3627C9.68925 11.2938 9.85147 11.1316 9.92038 10.9248L10.1731 10.1667C10.2752 9.86042 10.5618 9.65385 10.8846 9.65385ZM10.8846 12.1819C10.8386 12.2325 10.7902 12.2809 10.7396 12.3269C10.7902 12.373 10.8386 12.4214 10.8846 12.472C10.9307 12.4214 10.9791 12.373 11.0296 12.3269C10.9791 12.2809 10.9307 12.2325 10.8846 12.1819Z" fill="black"/>
</svg>

<svg xmlns="http://www.w3.org/2000/svg" width="16" height="16" fill="none" viewBox="0 0 16 16">
    <path d="M11.846 1a.75.75 0 0 1 .728.568l.166.664c.126.506.522.902 1.028 1.028l.664.166a.75.75 0 0 1 0 1.455l-.664.166a1.41 1.41 0 0 0-1.028 1.029l-.166.664a.75.75 0 0 1-1.456 0l-.165-.664a1.41 1.41 0 0 0-1.029-1.029l-.664-.166a.75.75 0 0 1 0-1.455l.664-.166a1.41 1.41 0 0 0 1.029-1.028l.165-.664A.75.75 0 0 1 11.846 1m0 2.722a3 3 0 0 1-.432.432q.24.193.432.432.194-.24.432-.432a3 3 0 0 1-.432-.432m-5.77-.799a.75.75 0 0 1 .722.544l.521 1.825a2.14 2.14 0 0 0 1.466 1.466l1.825.52a.75.75 0 0 1 0 1.443l-1.825.521A2.13 2.13 0 0 0 7.32 10.71l-.52 1.824a.75.75 0 0 1-1.443 0l-.521-1.824a2.13 2.13 0 0 0-1.467-1.467l-1.824-.52a.75.75 0 0 1 0-1.443l1.824-.521a2.13 2.13 0 0 0 1.467-1.466l.52-1.825a.75.75 0 0 1 .722-.544m0 3.317A3.64 3.64 0 0 1 4.317 8c.776.361 1.4.985 1.76 1.76A3.64 3.64 0 0 1 7.838 8a3.64 3.64 0 0 1-1.76-1.76m4.809 3.414a.75.75 0 0 1 .711.513l.253.758a.7.7 0 0 0 .438.438l.758.252a.75.75 0 0 1 0 1.423l-.758.253a.7.7 0 0 0-.438.438l-.253.758a.75.75 0 0 1-1.423 0l-.253-.758a.7.7 0 0 0-.437-.438l-.759-.253a.75.75 0 0 1 0-1.423l.759-.252a.7.7 0 0 0 .437-.438l.253-.758a.75.75 0 0 1 .712-.513m0 2.528q-.07.075-.145.145.076.069.145.145a2 2 0 0 1 .145-.145 2 2 0 0 1-.145-.145" clip-rule="evenodd"/>
</svg>
